X:1
T:Title
%%score { ( 1 3 ) | 2 }
L:1/8
M:3/4
K:F
V:1 treble nm="Grand Piano"
V:3 treble 
V:2 bass 
V:1
 z2 z2[Q:1/4=112] FG | A2 A2 A2 | A2 B2 c2 | d2 c2 A2 | c4 AA | [EG]2 [EG]2 [EG]2 | %6
 [EG]2 [DF]2 [EG]2 | A2 c2 A2 | [EG]4 FG | A2 A2 A2 | A2 B2 c2 | d2 c2 A2 | c4 A[CG] | %13
 [DF]2 [DB]2 [Fd]2 | [Ec]2 c2 AA | G2 c2 =B2 |[M:2/4] [Ec]4 |[M:1/4] [Fc][Fc] | %18
[M:3/4] z2 [Fd]2[K:bass][K:treble] [Fd]2 | d2 c2 Ac | [Ec]2 [Fc]2 [Gc]2 | c2 A2 AA | G2 A2 B2 | %23
 [Ed]2 c2 cc |[M:2/4] [Ec]2 [EB]2 |[M:1/4] [EG]2 |[M:2/4] [FA]4 |[M:1/4] [Fc][Fc] | %28
[M:3/4] z2 [Fd]2[K:bass][K:treble] [Fd]2 | d2 c2 Ac | [Ec]2 [Fc]2 [Gc]2 | c2 A2 AA | G2 A2 B2 | %33
 [Ed]2 c2 cc |[M:2/4] [Ec]2 [EB]2 |[M:1/4] [EG]2 |[M:2/4] F4 |] %37
V:2
 z2 z2 [F,A,][F,B,F] | [F,CF]2 [F,CF]2 [F,CF]2 | [F,CF]2 [F,DF]2 [F,A,F]2 | %3
 [F,B,F]2 [F,A,F]2 [F,CF]2 | [F,A,F]4 [F,CF][F,CF] | [C,C]2 [C,C]2 [C,C]2 | [C,C]2 [C,C]2 [C,C]2 | %7
 [F,CF]2 [F,A,F]2 [F,CF]2 | [C,C]4 [F,A,][F,B,F] | [F,CF]2 [F,CF]2 [F,CF]2 | %10
 [F,CF]2 [F,G,F]2 [F,A,F]2 | [F,B,F]2 [F,A,F]2 [F,CF]2 | [F,A,F]4 [F,CF][A,,F,] | %13
 [B,,F,]2 [B,,F,]2 [B,,B,]2 | [C,B,]2 [F,A,F]2 [F,CF][F,CF] | [G,CE]2 [G,E]2 [G,D]2 | %16
[M:2/4] [C,G,]4 |[M:1/4] [F,A,]2 |[M:3/4] [B,,B,]2 .[B,,B,]2 .[D,B,]2 | %19
 [F,B,F]2 [F,A,F]2 [F,CF][F,A,F] | [C,G,]2 [D,C]2 [E,B,]2 | [F,A,F]2 [F,CF]2 [F,CF][F,CF] | %22
 [B,D]2 [A,D^F]2 [G,DG]2 | [C,B,]2 [F,A,F]2 [F,A,F][F,A,F] |[M:2/4] [C,G,]2 [C,C]2 | %25
[M:1/4] [C,C]2 |[M:2/4] [F,C]4 |[M:1/4] [F,A,]2 |[M:3/4] [B,,B,]2 .[B,,B,]2 .[D,B,]2 | %29
 [F,B,F]2 [F,A,F]2 [F,CF][F,A,F] | [C,G,]2 [D,C]2 [E,B,]2 | [F,A,F]2 [F,CF]2 [F,CF][F,CF] | %32
 [B,D]2 [A,D^F]2 [G,DG]2 | [C,B,]2 [F,A,F]2 [F,A,F][F,A,F] |[M:2/4] [C,G,]2 [C,C]2 | %35
[M:1/4] [C,B,]2 |[M:2/4] [F,A,]4 |] %37
V:3
 x6 | x6 | x6 | x6 | x6 | x6 | x6 | x6 | x6 | x6 | x6 | x6 | x6 | x6 | x6 | x6 |[M:2/4] x4 | %17
[M:1/4] x2 |[M:3/4] [Fd]2 z[K:bass] C,[K:treble] z E, | x6 | x6 | x6 | x6 | x6 |[M:2/4] x4 | %25
[M:1/4] x2 |[M:2/4] x4 |[M:1/4] x2 |[M:3/4] [Fd]2 z[K:bass] C,[K:treble] z E, | x6 | x6 | x6 | x6 | %33
 x6 |[M:2/4] x4 |[M:1/4] x2 |[M:2/4] x4 |] %37

